dist/images/ico/ico_main_card_02.svg

<svg width="20" height="25" viewBox="0 0 20 25" fill="none" xmlns="http://www.w3.org/2000/svg">
<path d="M2.04211 4.94393H4.08423V6.05491C4.08423 7.27699 5.00318 8.27688 6.12634 8.27688H12.2527C13.3758 8.27688 14.2948 7.27699 14.2948 6.05491V4.94393H16.3369V10.4988H18.379V4.94393C18.379 3.72185 17.4601 2.72197 16.3369 2.72197H12.0689C11.64 1.43323 10.5169 0.5 9.18951 0.5C7.86214 0.5 6.73898 1.43323 6.31013 2.72197H2.04211C0.918951 2.72197 0 3.72185 0 4.94393V20.4977C0 21.7198 0.918951 22.7197 2.04211 22.7197H7.1474V20.4977H2.04211V4.94393ZM9.18951 2.72197C9.75109 2.72197 10.2106 3.22191 10.2106 3.83295C10.2106 4.44399 9.75109 4.94393 9.18951 4.94393C8.62793 4.94393 8.16846 4.44399 8.16846 3.83295C8.16846 3.22191 8.62793 2.72197 9.18951 2.72197Z" fill="#2F7AD3"/>
<path d="M19.7064 22.6086L17.6643 20.3866C18.2565 19.2645 18.6343 17.9091 18.185 16.3315C17.6439 14.4206 16.1021 12.943 14.2642 12.7541C11.3337 12.4431 8.92404 15.0539 9.20993 18.2535C9.39372 20.2422 10.7415 21.9309 12.4977 22.5197C13.9578 23.0085 15.1933 22.5974 16.2246 21.9531L18.2667 24.175C18.6649 24.6083 19.298 24.6083 19.6962 24.175C20.0944 23.7418 20.1046 23.0418 19.7064 22.6086ZM13.7843 20.4977C12.3548 20.4977 11.2316 19.2756 11.2316 17.7202C11.2316 16.1649 12.3548 14.9428 13.7843 14.9428C15.2137 14.9428 16.3369 16.1649 16.3369 17.7202C16.3369 19.2756 15.2137 20.4977 13.7843 20.4977Z" fill="#2F7AD3"/>
</svg>

<svg width="20" height="25" fill="none" xmlns="http://www.w3.org/2000/svg"><path d="M2.042 4.944h2.042v1.11c0 1.223.92 2.223 2.042 2.223h6.127c1.123 0 2.042-1 2.042-2.222V4.944h2.042v5.555h2.042V4.944c0-1.222-.919-2.222-2.042-2.222h-4.268C11.64 1.433 10.517.5 9.189.5c-1.327 0-2.45.933-2.879 2.222H2.042C.92 2.722 0 3.722 0 4.944v15.554c0 1.222.919 2.222 2.042 2.222h5.105v-2.222H2.042V4.944zM9.19 2.722c.561 0 1.02.5 1.02 1.11 0 .612-.459 1.112-1.02 1.112-.562 0-1.022-.5-1.022-1.111s.46-1.111 1.022-1.111z" fill="#2F7AD3"/><path d="M19.706 22.609l-2.042-2.222c.592-1.122.97-2.478.521-4.056-.541-1.91-2.083-3.388-3.92-3.577-2.931-.31-5.341 2.3-5.055 5.5.184 1.988 1.531 3.677 3.288 4.266 1.46.489 2.695.077 3.727-.567l2.042 2.222a.948.948 0 001.43 0c.397-.433.408-1.133.01-1.566zm-5.922-2.111c-1.43 0-2.552-1.222-2.552-2.778 0-1.555 1.123-2.777 2.552-2.777 1.43 0 2.553 1.222 2.553 2.777 0 1.556-1.123 2.778-2.553 2.778z" fill="#2F7AD3"/></svg>
